src/assets/bold/lm-layout-bold.svg

<svg width="24" height="24" viewBox="0 0 24 24" fill="none" xmlns="http://www.w3.org/2000/svg" fill="currentColor">
<path fill-rule="evenodd" clip-rule="evenodd" d="M5.00006 4.75C4.93376 4.75 4.87017 4.77634 4.82328 4.82322C4.7764 4.87011 4.75006 4.9337 4.75006 5V7C4.75006 7.0663 4.7764 7.12989 4.82328 7.17678C4.87017 7.22366 4.93376 7.25 5.00006 7.25H19.0001C19.0664 7.25 19.13 7.22366 19.1768 7.17678C19.2237 7.12989 19.2501 7.06631 19.2501 7V5C19.2501 4.93369 19.2237 4.87011 19.1768 4.82322C19.13 4.77634 19.0664 4.75 19.0001 4.75H5.00006ZM3.76262 3.76256C4.09081 3.43438 4.53593 3.25 5.00006 3.25H19.0001C19.4642 3.25 19.9093 3.43437 20.2375 3.76256C20.5657 4.09075 20.7501 4.53587 20.7501 5V7C20.7501 7.46413 20.5657 7.90925 20.2375 8.23744C19.9093 8.56563 19.4642 8.75 19.0001 8.75H5.00006C4.53593 8.75 4.09081 8.56562 3.76262 8.23744C3.43444 7.90925 3.25006 7.46413 3.25006 7V5C3.25006 4.53587 3.43444 4.09075 3.76262 3.76256ZM5.00006 12.75C4.93376 12.75 4.87017 12.7763 4.82328 12.8232C4.7764 12.8701 4.75006 12.9337 4.75006 13V19C4.75006 19.0663 4.7764 19.1299 4.82328 19.1768C4.87017 19.2237 4.93375 19.25 5.00006 19.25H9.00006C9.06637 19.25 9.12995 19.2237 9.17684 19.1768C9.22372 19.1299 9.25006 19.0663 9.25006 19V13C9.25006 12.9337 9.22372 12.8701 9.17684 12.8232C9.12995 12.7763 9.06636 12.75 9.00006 12.75H5.00006ZM3.76262 11.7626C4.09081 11.4344 4.53593 11.25 5.00006 11.25H9.00006C9.46419 11.25 9.90931 11.4344 10.2375 11.7626C10.5657 12.0908 10.7501 12.5359 10.7501 13V19C10.7501 19.4641 10.5657 19.9093 10.2375 20.2374C9.90931 20.5656 9.46419 20.75 9.00006 20.75H5.00006C4.53593 20.75 4.09081 20.5656 3.76262 20.2374C3.43444 19.9093 3.25006 19.4641 3.25006 19V13C3.25006 12.5359 3.43444 12.0908 3.76262 11.7626ZM13.2501 12C13.2501 11.5858 13.5858 11.25 14.0001 11.25H20.0001C20.4143 11.25 20.7501 11.5858 20.7501 12C20.7501 12.4142 20.4143 12.75 20.0001 12.75H14.0001C13.5858 12.75 13.2501 12.4142 13.2501 12ZM13.2501 16C13.2501 15.5858 13.5858 15.25 14.0001 15.25H20.0001C20.4143 15.25 20.7501 15.5858 20.7501 16C20.7501 16.4142 20.4143 16.75 20.0001 16.75H14.0001C13.5858 16.75 13.2501 16.4142 13.2501 16ZM13.2501 20C13.2501 19.5858 13.5858 19.25 14.0001 19.25H20.0001C20.4143 19.25 20.7501 19.5858 20.7501 20C20.7501 20.4142 20.4143 20.75 20.0001 20.75H14.0001C13.5858 20.75 13.2501 20.4142 13.2501 20Z" fill="black"/>
</svg>

<svg xmlns="http://www.w3.org/2000/svg" width="24" height="24" fill="currentColor" viewBox="0 0 24 24">
  <path fill-rule="evenodd" d="M5 4.75a.25.25 0 0 0-.25.25v2a.25.25 0 0 0 .25.25h14a.25.25 0 0 0 .25-.25V5a.25.25 0 0 0-.25-.25H5Zm-1.237-.987A1.75 1.75 0 0 1 5 3.25h14A1.75 1.75 0 0 1 20.75 5v2A1.75 1.75 0 0 1 19 8.75H5A1.75 1.75 0 0 1 3.25 7V5c0-.464.184-.91.513-1.237ZM5 12.75a.25.25 0 0 0-.25.25v6a.25.25 0 0 0 .25.25h4a.25.25 0 0 0 .25-.25v-6a.25.25 0 0 0-.25-.25H5Zm-1.237-.987A1.75 1.75 0 0 1 5 11.25h4A1.75 1.75 0 0 1 10.75 13v6A1.75 1.75 0 0 1 9 20.75H5A1.75 1.75 0 0 1 3.25 19v-6c0-.464.184-.91.513-1.237ZM13.25 12a.75.75 0 0 1 .75-.75h6a.75.75 0 0 1 0 1.5h-6a.75.75 0 0 1-.75-.75Zm0 4a.75.75 0 0 1 .75-.75h6a.75.75 0 0 1 0 1.5h-6a.75.75 0 0 1-.75-.75Zm0 4a.75.75 0 0 1 .75-.75h6a.75.75 0 0 1 0 1.5h-6a.75.75 0 0 1-.75-.75Z" clip-rule="evenodd"/>
</svg>
